X:1
T:What God Ordains
T:What God Ordains
%%score { ( 1 3 ) | ( 2 4 ) }
L:1/8
Q:1/4=85
M:4/4
K:Gb
V:1 treble nm="Piano" snm="Pno."
V:3 treble 
V:2 bass 
V:4 bass 
V:1
!mp!!mp! [B,D]2 [B,G]F [CE]4 | B,D[B,G]F [CE]4 | [B,DG]2 [B,G]F [CE]4 | EA,A,D [B,D]4 | %4
 D2 A,D B,2 C2 | z2 C2- C4 | [B,DG]2 [B,G]F [CE]4 | [CE]2 cB G4 | z B, B2 z B, B2 | %9
 z C A2 z B, G2 | e'8 | d'8 | e'8 | c'4 d'4 | D2 GF E2 AG | F2 BA G4 | c2 dG g4 | d2 eA a4 | %18
 G4 [Ec]4 | [FA]4 [GB]4 | [FA]4 [GB]4 | c4 d4 | [Gd]4 [Ac]4 | A4 G4 | d4 c4 | [Ac]4 [GB]2 z2 | G8 | %27
 F8 | E8 | z8 | z8 | D8 | z8 | z8 | [B,D]4 [CG]4 | [A,E]4 B,4 | D2 A,A [G,DG]2 [G,CG]2 | %37
 G3 E FA, [G,CD]2 | G2 BA z4 | E2 C2 z4 | A,2 Dd d2 cg | g2 dd' g2 f2 | %42
 [Bg]2 [GB][FA] [EG]2 [Ec][DB] | [CA]4 G4 | F4 E4 | C2 E6 | [B,EGB]2 [CEGc]2 [DGBd]4 | %47
 [DGBd]2 [EGBe]2 [FBdf]4 | [Gceg]2 [FAdf]2 [EGBe]2 [DGd]2 | [CG]2 [CG]2 G2 F2 | %50
 [Dd]2 [Gg][Ff] [Ee]2 [Aa][Gg] | [Ff]2 [Bb][Aa] [Gg]4 | [Gcg]2 [DGd][Gg]!<(! [Gceg]2 [CGc][Gg] | %53
 [Adg]2 [A,-DG]2 [A,DF]2 [CDG][Dd]!<)! |!f!!f!!f!!f! [GBdg]2 [dgbd']2 [cegc']3 [Bb] | %55
 [Acea]3 [Gg] [Bdgb]2 [DGBd]2 | [DAd]3 A [G,DG]2 [G,CG]2 | [E,G,CE]2 [F,CF]2 [G,CEG]2 [A,CEA]E | %58
[K:Ab]!ff!!ff!!ff!!ff! [A,CEA]2 [EAce]2 [EAd]2 [EAd]2 | [B,EAB]2 [B,EAB]2 [CEAc]2 [A,CE]2 | %60
 [A,B,E]2 [G,B,E]2 [A,EA]2 [A,DA]2 | [A,EA]2 [A,DA]2 [B,EA]2 [B,EG]2 | %62
 [A,CEA]2 [CEAc]2 [EAd]2 [EAce]2 | [DFBd]2 [CFBc]2 [CFB]2 [CFA]2 | [CFG]2 [CEG]2 [CFA]2 [FAc]2 | %65
 [DFBd]2 [F,B,DF]2 [A,CF]4 | [A,CFA]2 [A,DFA][B,B] [CEAc]3 A | [CEAc]2 [CFAc][Dd] [EAce]3 c | %68
 [FAdf]2 [EGBe]2 [CFAc][B,B] [A,EA]2 | [A,DA]3 G, [A,B,E]2 [EGBe]2 | %70
 [EAe]2 [Aa][Gg] [FAdf]2 [Bb][Aa] | [GBeg]2 [cc'][Bb] [Acfa]3 E | [A,DA]2 [EAe]2 [DFAd]3 [Cc] | %73
 B6 [DEA][Ee] | [Acea]2 [eac'e']2 [ead']3 [cc'] | [Beab]3 [Aa] [ceac']2 [EAce]2 | %76
 [EABe]3 [B,B] [A,EA]2 [A,DA]2 | [A,DA]3 G E3 E | [A,CFA]2 [A,DFA][B,B] [CEAc]3 A | %79
 [CEAc]2 [CFAc][Dd] [EGce]3 c | [FAdf]2 [EGBe]2 [CFAc]!>(![B,B] [A,EA]2 | A3 G [B,E]4!>)! | %82
[M:6/4]!mp!!mp!!mp! [Ad]2 [Ad]2 A2 F2 G2 z2 |[M:4/4] E2 AG F2 BA | G2 cB A4 | %85
 [DA]2 [EA]2 F2 [A,D]2 | [B,A]4 [B,G]2 [A,DA]2 |[K:] [A,CA]4 [B,,D,F,]4 | %88
 [B,,D,G,]4 [D,F,A,]2 z C, | F,8 | z8 | [C,F,G,]8 | [E,G,]8 | [F,A,]8 |] %94
V:2
!mp! G,,D, G,2 [G,,E,G,]4 | G,,D, G,2 [G,,E,G,]4 | G,,D, G,2 [G,,E,G,]4 | [G,,D,F,]4 [G,,D,G,]4 | %4
 z D,3- D,2 C,2 | A,,8 | G,,D, G,2 [G,,E,G,]4 | z E, A,2 [E,B,]4 | z E, A,2 z E, G,2 | %9
 z E, A,2 z G, E,2 |[K:treble] E8 | D8 | C8 | A,4 A,4 |[K:] G,,E, G,2 A,,E, A,2 | %15
 B,,F, B,2 C,G, C2 | C,A, C6 | D,B, D6 | B,8- | B,6 B,2 | B,8- | B,6 B,2 | B,8 | B,6 C2 | [F,C]8 | %25
 [E,C]6 z2 | [C,G,]8 | [B,,G,]8 | A,,8 | [F,,F,]8 | [E,,E,]8 | [E,,E,]8 | [E,,E,]8 | [E,,E,]6 z2 | %34
 E,,B,,E,D,, C,,A,, E,2 | A,,,F,, C,2 [E,,B,,E,]4 | D,,4 [C,,A,,]4 | B,,,8 | %38
 E,,B,,E,D,, C,,A,, E,2 | A,,,A,, C,2 E,,B,, E,2 | D,,B,, D,2 C,,A,, E,2 | F,,C, A,2 C2 B,2 | %42
 E,,B,, G,2 E,,C, E,2 | F,,C, F,2 C,,G,, E,2 | G,,D, G,2 C,,G,,C,G, | F,,C, F,2 [C,,G,,C,]4 | %46
 [C,,C,]2 [A,,,A,,]2 [E,,,E,,]4 | [E,,E,]2 [C,,C,]2 [G,,,G,,]4 | %48
 [A,,,E,,A,,]2 [B,,,F,,B,,]2 [C,,G,,C,]2 [G,,,G,,]2 | [F,,,F,,]3 [F,,,F,,] [B,,,B,,]4 | %50
 G,,E, G,2 A,,E, A,2 | B,,F, B,2 C,G, C2 | [F,,F,]2 [G,,G,]2!<(! [A,,A,]2 [C,,C,]2 | %53
 B,, B,,2 B,, B,, B,,2 B,,!<)! |!f!!f!!f! z B,,[E,G,B,]B,, z C,[E,A,C]C, | %55
 z C,[F,A,C]C, z B,,[E,G,]B,, | z D,,D,D,, z C,,C,C,, | %57
 z [B,,,B,,]2 [B,,,B,,] z [B,,,B,,]2 [B,,,B,,] |[K:Ab]!ff!!ff! C,, C,,2 C,, C,, C,,2 C,, | %59
 C,, C,,2 C,, F,, F,,2 F,, | E,, E,,2 E,, D,, D,,2 D,, | G,, G,,2 G,, G,, G,,2 G,, | %62
 F,, F,,2 F,, F,, F,,2 F,, | G,, G,,2 G,, D,, D,,2 D,, | A,, A,,2 A,, D,, D,,2 D,, | %65
 G,, G,,2 G,, [D,,A,,]4 | [D,,D,][C,,C,] [B,,,B,,]2 F,,F,, [C,F,]2 | %67
 [F,,F,][E,,E,] [D,,D,]2 A,,A,, [E,A,]2 | [B,,,B,,]2 [C,,C,]2 [D,,D,]2 [A,,,A,,]2 | %69
 G,,G,, D,2 C,,2 C,,2 | z C,[F,A,]C, z D,[F,B,]D, | z E,[G,C]E, z F, [A,D]2 | %72
 [G,,,G,,]2 [A,,,A,,]2 [B,,,B,,]2 [D,,D,]2 | C,C,F,C, C, C,2 C, | z C,[F,A,C]C, z B,, [F,B,]2 | %75
 z C,[F,G,C]C, z C,[F,A,]C, | z C,E,C, z B,,2 B,, | z D,, B,,2 G,,2 G,,2 | %78
 [D,,D,][C,,C,] [B,,,B,,]2 F,,F,, [C,F,]2 | [F,,F,][E,,E,] [D,,D,]2 A,,A,, [E,A,]2 | %80
 [B,,,B,,]2 [C,,C,]2 [D,,D,]2 [A,,,A,,]2 | G,,G,, D,2 z4 |[M:6/4]!mp! G,,D, B,2 [C,G,C]6 z2 | %83
[M:4/4] A,,F, A,2 B,,F, B,2 | C,G, C2 D,A, D2 | [G,,F,]2 [A,,F,]2 [B,,F,]2 [D,,B,,D,]2 | %86
 [C,,G,,]8 | z8 | z8 | [D,,B,,]8 | [D,,B,,]8 | [C,,G,,]8 | [C,,C,]8 | [F,,C,]8 |] %94
V:3
 x8 | x8 | x8 | x8 | z4 [G,G]4 | z DGD- [DA]4 | x8 | x8 | x8 | x8 | z egb- begb- | bdgb- bdgb | %12
 z egb- begb | z e g2 z d f2 | x8 | x8 | x8 | x8 | x8 | x8 | x8 | G8 | x8 | d8 | G8 | x8 | z4 B4 | %27
 B4 d4 | e4 B4 | [CDG]4 [CD]4 | [CDG]4 [Ec]4 | [FA]4 [GB]4 | [EG]4 [EAc]4 | [FGA]6 z D | %34
 G2 d2 c3 B | A3 G B2 D2 | x8 | x8 | [B,D]4 [CG]4 | A3 G [DB]2 B,D | z4 [DG]4 | [Gc]4 [dd']4 | x8 | %43
 z2 e4 e2 | z2 d2 B2 G2 | z4 B,4 | x8 | x8 | x8 | c4 [A,DA]4 | x8 | x8 | x8 | x8 | x8 | x8 | %56
 z2 [A,D]2 z4 | x8 |[K:Ab] x8 | x8 | x8 | x8 | x8 | x8 | x8 | x8 | x8 | x8 | x8 | x8 | x8 | x8 | %72
 x8 | x8 | x8 | x8 | x8 | z4 [A,B,]2 [G,B,]2 | x8 | x8 | x8 | [A,D]2 [A,D]2 A,2 G,2 | %82
[M:6/4] a3 g [Be]6 z2 |[M:4/4] x8 | x8 | z4 A4 | x8 |[K:] x8 | x8 | z C,F,C,- C,C,F,C,- | %90
 C,C,F,C, F,4 | x8 | x8 | x8 |] %94
V:4
 x8 | x8 | x8 | x8 | F,,4 E,,4 | z G,3 F,4 | x8 | A,,4 z4 | B,,4 G,,4 | A,,4 E,,4 | %10
[K:treble] z GBG- GGBG | z GBG- GGBG | z GcG- GGcG | z G c2 z F A2 |[K:] x8 | x8 | x8 | x8 | x8 | %19
 x8 | x8 | x8 | x8 | A,4 G,4 | x8 | x8 | x8 | x8 | G,4 A,4 | x8 | x8 | x8 | x8 | x8 | x8 | x8 | %36
 z B,,3 z4 | z F,, C,2 B,,2 B,,B,,, | x8 | x8 | x8 | z4 [B,,F,]4 | x8 | x8 | x8 | x8 | %46
 z4 z2 [B,,E,G,]2 | z4 z2 [D,F,G,]2 | x8 | x8 | x8 | x8 | x8 | B,,,4 B,,,4 | %54
 [E,,,E,,]4 [E,,,E,,]4 | [E,,,E,,]4 [E,,,E,,]4 | [D,,,D,,]4 [C,,,C,,]4 | %57
 [B,,,,B,,,]4 [B,,,,B,,,]4 |[K:Ab] C,,,4 C,,,4 | C,,,4 F,,,4 | E,,,4 D,,,4 | G,,,4 C,,4 | %62
 F,,,4 F,,,4 | G,,,4 D,,,4 | A,,,4 D,,,4 | G,,,4 z4 | z4 F,,,4 | z4 A,,,4 | x8 | G,,,4 C,,,4 | %70
 [A,,,A,,]4 [B,,,B,,]4 | [C,,C,]4 [D,,D,]4 | x8 | C,,4 C,,4 | [F,,,F,,]4 [D,,,D,,]4 | %75
 [C,,,C,,]4 [F,,,F,,]4 | [E,,,E,,]4 [D,,,D,,]4 | G,,,4 C,,4 | z4 F,,,4 | z4 A,,,4 | x8 | %81
 G,,,4 [C,,G,,C,]4 |[M:6/4] x12 |[M:4/4] x8 | x8 | x8 | z2 C,4 C,2- | C,2 F,,,4 F,,,2- | %88
 F,,,2 F,,,4 z2 | x8 | x8 | x8 | x8 | x8 |] %94

